X: 1
T: Hopsa fra Raaby
R: hopsa
O: Denmark
Z: John Chambers <jc@trillian.mit.edu>
M: 2/4
L: 1/8
K: D
|: F/F/ \
| "D"FA, DF | AD FA | dF Ad | f2 ed | "A7"ce EF |1,3 G2 cB | "D"Ad FG | A3 \
                                               :|2,4 GA Bc | "D"dz dz | d3 :|
K: A
|: z \
| "A"ce ce | a2 gf | e2 AB | c3 e | "E7"dc Bc | de fg |1,3 ba gf | e3 \
                                                     :|2,4 "A"az az | a3 :|
K: D
|: A \
| "D"f2 (3fec  | d2 (3dcB | A2 (3AFD | A,D FA | "A7"G2 (3GFG | EA ce |1,3 "D"d2 (3dcd | fd A \
                                                                    :|2,4 "D"dz dz | d3 :|
